X:1
T: Miss Rose's Fancy
C:
R:Jig
Q:180
K:A
M:6/8
L:1/16
|:E2|A4A2 A2B2c2|B4B2 B2c2d2|c2e2a2 e2c2A2|B2c2A2 G2F2E2|
A4A2 A2B2c2|B4B2 B2c2d2|c2e2a2 e2c2A2|1d2B2G2 A4:|2d2B2G2 A4e2|
e2c2e2 e2c2e2|e2f2g2 a4e2|f2g2a2 e2c2A2|B2c2B2 G2F2E2|
e2c2e2 e2c2e2|e2f2g2 a3gf2|e2f2d2 c2d2B2|A6A2c2d2|
e2c2e2 e2c2e2|e2f2g2 a4e2|f2d2a2 e2c2A2|B2c2A2 G2F2E2|
a3ga2 e2f2g2|a2g2f2 e2c2e2|f2d2f2 e2c2A2|d2B2G2 A4||
